X:7191
%8647
T:Kiss Me Kate
S:Trad, arr. Paddy O'Brien 
R:reel
E:9
I:speed 350
M:C|
K:Cmaj
B,|~C2 EG cGEC|G,A,CE DA,~A,2|CDEG cGEG|AFEF DCA,B,|\
~C2EG cGEC|G,A,CE DA, A,2|CDEG cGEG|AFDF EC C
%Error : Bar 8 is 7/8 not 2/2
||\
c
%Error : Bar 9 is 1/8 not 2/2
|Bcdc BG~G2|cBcd ecAc|Bcdc BG~G2|BGAB ~c2(3GAB|\
cedB ~c2 ec|Bcdc BG~G2|BGAG BG~G2|BGAB cAGE||**
\vfill\eject


